X:56
T:Gigue de Terrebonne
R:reel quebecois
C:Alfred Montmarquette
M:C|
L:1/16
Q:1/4=100
P:ABAC
K:D
P:A
d2cd BAFA d2cd e2(3ABc|d2cd BAFA GBAG FDDA|
d2cd BAFA d2cd e2(3ABc|1d2cd BAFA GBAG FDDA
:|2d2cd BAFA GABc d2(3Ade||
|:f2fa gfed fefd Bcde|fefa gfed cdeg fdde|
fefa gfed fefd Bcde|
|1fefa gfed cABc d2(3Ade:|
|2fefa gfed cABc||
P:B
d2A2||
P:C
d4||